packages/icons/web/store_large.svg

<svg width="24" height="24" viewBox="0 0 24 24" fill="none" xmlns="http://www.w3.org/2000/svg">
<path fill-rule="evenodd" clip-rule="evenodd" d="M6 10.5C6.55228 10.5 7 10.9477 7 11.5V13.5C7 13.7761 7.22386 14 7.5 14H16.5C16.7761 14 17 13.7761 17 13.5V11.5C17 10.9477 17.4477 10.5 18 10.5C18.5523 10.5 19 10.9477 19 11.5V13.5C19 14.8807 17.8807 16 16.5 16H7.5C6.11929 16 5 14.8807 5 13.5V11.5C5 10.9477 5.44772 10.5 6 10.5Z" fill="#212933"/>
<path fill-rule="evenodd" clip-rule="evenodd" d="M4.06377 15.8462C4.52958 14.7282 5.6219 14 6.833 14H17.1664C18.3774 14 19.4697 14.7282 19.9356 15.8461L21.0574 18.5384C21.7436 20.1851 20.5337 22 18.7498 22H5.24967C3.46572 22 2.25584 20.1852 2.94198 18.5385L4.06377 15.8462ZM6.833 16C6.4293 16 6.06519 16.2427 5.90992 16.6154L4.78813 19.3077C4.6509 19.637 4.89288 20 5.24967 20H18.7498C19.1066 20 19.3485 19.637 19.2113 19.3077L18.0894 16.6154C17.9342 16.2427 17.5701 16 17.1664 16H6.833Z" fill="#212933"/>
<path fill-rule="evenodd" clip-rule="evenodd" d="M4.07137 2.62897C4.22313 2.24911 4.59094 1.99997 5 1.99997H19C19.4091 1.99997 19.7769 2.24913 19.9287 2.62902L19.9827 2.76471C20.017 2.85124 20.0664 2.9757 20.1264 3.12789C20.2464 3.43213 20.4094 3.84783 20.581 4.29303C20.9167 5.16341 21.3093 6.20689 21.4594 6.71808C21.4863 6.80963 21.5 6.90455 21.5 6.99997C21.5 7.83548 21.0447 8.44352 20.6504 8.83785C20.1463 9.34185 19.4628 9.625 18.75 9.625C18.1331 9.625 17.5382 9.41293 17.0625 9.02916C16.5869 9.41293 15.9919 9.625 15.375 9.625C14.7581 9.625 14.1632 9.41293 13.6875 9.02916C13.2119 9.41293 12.6169 9.625 12 9.625C11.3831 9.625 10.7882 9.41293 10.3125 9.02916C9.83685 9.41293 9.24186 9.625 8.625 9.625C8.00814 9.625 7.41315 9.41293 6.9375 9.02916C6.46185 9.41293 5.86686 9.625 5.25 9.625C4.53723 9.625 3.85365 9.34185 3.34965 8.83785C2.95532 8.44352 2.5 7.83548 2.5 6.99997C2.5 6.90462 2.51364 6.80976 2.5405 6.71827C2.6906 6.20701 3.08323 5.16341 3.41888 4.29306C3.59058 3.84784 3.75358 3.43213 3.87359 3.12788C3.93363 2.97568 3.98297 2.8512 4.01735 2.76467L4.07137 2.62897ZM5.67963 3.99997C5.56824 4.28306 5.42961 4.63753 5.28492 5.0127C4.98382 5.79346 4.67444 6.61817 4.51878 7.09262C4.54612 7.16503 4.61149 7.27126 4.76386 7.42364C4.8928 7.55257 5.06766 7.625 5.25 7.625C5.43234 7.625 5.6072 7.55257 5.73614 7.42364C5.86507 7.2947 5.9375 7.11983 5.9375 6.9375C5.9375 6.38521 6.38522 5.9375 6.9375 5.9375C7.48978 5.9375 7.9375 6.38521 7.9375 6.9375C7.9375 7.11983 8.00993 7.2947 8.13886 7.42364C8.2678 7.55257 8.44266 7.625 8.625 7.625C8.80734 7.625 8.9822 7.55257 9.11114 7.42364C9.24007 7.2947 9.3125 7.11983 9.3125 6.9375C9.3125 6.38521 9.76022 5.9375 10.3125 5.9375C10.8648 5.9375 11.3125 6.38521 11.3125 6.9375C11.3125 7.11983 11.3849 7.2947 11.5139 7.42364C11.6428 7.55257 11.8177 7.625 12 7.625C12.1823 7.625 12.3572 7.55257 12.4861 7.42364C12.6151 7.2947 12.6875 7.11984 12.6875 6.9375C12.6875 6.38521 13.1352 5.9375 13.6875 5.9375C14.2398 5.9375 14.6875 6.38521 14.6875 6.9375C14.6875 7.11984 14.7599 7.2947 14.8889 7.42364C15.0178 7.55257 15.1927 7.625 15.375 7.625C15.5573 7.625 15.7322 7.55257 15.8611 7.42364C15.9901 7.2947 16.0625 7.11984 16.0625 6.9375C16.0625 6.38521 16.5102 5.9375 17.0625 5.9375C17.6148 5.9375 18.0625 6.38521 18.0625 6.9375C18.0625 7.11984 18.1349 7.2947 18.2639 7.42364C18.3928 7.55257 18.5677 7.625 18.75 7.625C18.9323 7.625 19.1072 7.55257 19.2361 7.42364C19.3885 7.2713 19.4538 7.16508 19.4812 7.09268C19.3254 6.61805 19.016 5.7933 18.715 5.01263C18.5703 4.63748 18.4317 4.28304 18.3203 3.99997H5.67963Z" fill="#212933"/>
<path fill-rule="evenodd" clip-rule="evenodd" d="M10.125 18C10.125 17.5168 10.5168 17.125 11 17.125H13C13.4832 17.125 13.875 17.5168 13.875 18C13.875 18.4832 13.4832 18.875 13 18.875H11C10.5168 18.875 10.125 18.4832 10.125 18Z" fill="#212933"/>
</svg>

<svg width="24" height="24" fill="none" xmlns="http://www.w3.org/2000/svg">
    <path fill-rule="evenodd" clip-rule="evenodd" d="M6 10.5a1 1 0 011 1v2a.5.5 0 00.5.5h9a.5.5 0 00.5-.5v-2a1 1 0 112 0v2a2.5 2.5 0 01-2.5 2.5h-9A2.5 2.5 0 015 13.5v-2a1 1 0 011-1z" fill="currentColor"/>
    <path fill-rule="evenodd" clip-rule="evenodd" d="M4.064 15.846A3 3 0 016.833 14h10.333a3 3 0 012.77 1.846l1.121 2.692A2.5 2.5 0 0118.75 22H5.25a2.5 2.5 0 01-2.308-3.462l1.122-2.692zM6.833 16a1 1 0 00-.923.615l-1.122 2.693A.5.5 0 005.25 20h13.5a.5.5 0 00.461-.692l-1.122-2.693a1 1 0 00-.923-.615H6.833zM4.071 2.629A1 1 0 015 2h14a1 1 0 01.929.629l.054.136.143.363c.12.304.283.72.455 1.165.336.87.728 1.914.878 2.425A1 1 0 0121.5 7c0 .835-.455 1.444-.85 1.838a2.688 2.688 0 01-3.587.191 2.687 2.687 0 01-3.375 0 2.687 2.687 0 01-3.376 0 2.688 2.688 0 01-3.374 0 2.688 2.688 0 01-3.588-.191C2.955 8.444 2.5 7.835 2.5 7a1 1 0 01.04-.282c.15-.511.543-1.555.879-2.425a167.07 167.07 0 01.598-1.528l.054-.136zM5.68 4c-.112.283-.25.638-.395 1.013-.301.78-.61 1.605-.766 2.08.027.072.092.178.245.33a.688.688 0 001.173-.486 1 1 0 112 0 .688.688 0 001.375 0 1 1 0 112 0 .687.687 0 101.376 0 1 1 0 112 0 .687.687 0 101.374 0 1 1 0 112 0 .687.687 0 001.174.487c.152-.153.218-.259.245-.331-.156-.475-.465-1.3-.766-2.08-.145-.376-.283-.73-.395-1.013H5.68z" fill="currentColor"/>
    <path fill-rule="evenodd" clip-rule="evenodd" d="M10.125 18c0-.483.392-.875.875-.875h2a.875.875 0 010 1.75h-2a.875.875 0 01-.875-.875z" fill="currentColor"/>
</svg>
